X:1
T:Title
%%score { ( 1 3 ) | 2 }
L:1/8
Q:1/4=100
M:6/8
K:Bb
V:1 treble nm="Grand Piano"
V:3 treble 
V:2 bass 
V:1
 [DF]2 [DF] [_D=E]2 [_EG] | [DF]2 [DF] [_D=E]2 [_EG] | [DF]2 [Fd] [Fd]2 [DB] | [DF]6 | c2 c =B2 d | %5
w: B.~D.~Ackley * * *|||||
 c2 c =B2 d | c2 B A2 G | F6 | [DF]2 [DF] [_D=E]2 [DG] | [DF]2 [DF] [_D=E]2 [DG] | %10
w: |||||
 [DF]2 [Fd] [Fd]2 [DB] | [DF]6 | [=Ed]2 [Ec] [Ed]2 [Ec] | d2 c A3 | [=Ec]2 [EB] [CEA]2 [B,EG] | %15
w: |||||
 [A,F]3- [A,-DF-]2 [A,EF] | [DF]3 [DF]3 | [DF][B,D][CE] [DF][Fd][Ec] |[M:3/8] [DB]2 [DB] | %19
w: ||||
 [FA]2 [EG] |[M:3/4] [DF]3 D3 | E3 E3 | EC DE cB | A2 G A2 B | d2 c A2 G | [DF]3 [DF]3 | %26
w: |||||||
 [DF][B,D] [CE][DF] [Fd][Ec] |[M:3/8] [DB]2 [DB] | [Ec]2 [Fd] |[M:3/4] [_Af]3 [Ge]3 | %30
w: ||||
 [EG]2 [Ge] d2 [Gc] |[M:13/16] [Bf].d3/2 z D-<DE | %32
w: ||
[M:3/4] z2 z .F3[Q:1/4=99][Q:1/4=97][Q:1/4=96][Q:1/4=94][Q:1/4=93][Q:1/4=91][Q:1/4=90][Q:1/4=88][Q:1/4=87][Q:1/4=85][Q:1/4=84][Q:1/4=82][Q:1/4=81][Q:1/4=79][Q:1/4=78][Q:1/4=76] | %33
w: |
 [DB]6 |] %34
w: |
V:2
 [B,,B,]2 [B,,B,] [B,,B,]2 [B,,B,] | [B,,B,]2 [B,,B,] [B,,B,]2 [B,,B,] | %2
 [B,,B,]2 [B,,B,] [B,,B,]2 [B,,F,] | [B,,B,]6 | [F,A,E]2 [F,A,E] [F,_A,D]2 [F,A,F] | %5
 [F,A,E]2 [F,A,E] [F,_A,D]2 [F,A,F] | [F,A,E]2 [F,A,E] [F,CE]2 [F,B,E] | %7
 [F,A,]2 [E,A,] [D,B,]2 [C,A,] | [B,,B,]2 [B,,B,] [B,,G,]2 [B,,=E,] | %9
 [B,,F,]2 [B,,F,] [B,,G,]2 [B,,=E,] | [B,,F,]2 [B,,B,] [B,,B,]2 [B,,F,] | [B,,B,]6 | %12
 [C,B,]2 [C,B,] [C,B,]2 [C,B,] | [F,A,F]2 [F,A,F] [F,CF]3 | [C,C]2 [C,G,] C,2 C, | F,2 E, D,2 C, | %16
 [B,,B,]3 [B,,B,]3 | [B,,B,][B,,F,][B,,F,] [B,,B,][B,,B,][B,,B,] |[M:3/8] [B,,F,]2 [B,,F,] | %19
 [B,,B,]2 [B,,B,] |[M:3/4] [B,,B,]3 [B,,F,B,]3 | [F,A,C]3 [F,A,C]3 | %22
 [F,A,C][F,A,] [F,A,C][F,A,C] [F,A,E][F,A,E] | [F,CE]2 [F,B,E] [F,CE]2 [F,G,E] | %24
 [F,A,F]2 [F,A,E] [F,CE]2 [F,A,E] | [B,,B,]3 [B,,B,]3 | %26
 [B,,B,][B,,F,] [B,,F,][B,,B,] [B,,B,][B,,B,] |[M:3/8] [B,,F,]2 [B,,F,] | [B,,B,]2 [B,,B,] | %29
[M:3/4] [E,B,]3 [E,B,]3 | [C,C]2 [C,C] [D,=B,]2 [E,C] |[M:13/16] [F,D].[B,F]3/2 z D,-<D,E, | %32
[M:3/4] [F,B,D]2 [F,B,D][E,A,C] [D,B,][C,A,] | [B,,B,]6 |] %34
V:3
 x6 | x6 | x6 | x6 | x6 | x6 | x6 | z2 C D2 E | x6 | x6 | x6 | x6 | x6 | x6 | x6 | C3 z3 | x6 | %17
 x6 |[M:3/8] x3 | x3 |[M:3/4] x6 | x6 | x6 | x6 | x6 | x6 | x6 |[M:3/8] x3 | x3 |[M:3/4] x6 | x6 | %31
[M:13/16] x13/2 |[M:3/4] F2 .F2 D[EF] | x6 |] %34

